img/logo.svg

<svg width="200" height="17" viewBox="0 0 200 17" fill="none" xmlns="http://www.w3.org/2000/svg">
<path d="M34.916 2.95652C35.3543 2.51304 35.9387 2.21739 36.523 2.21739H36.8152C37.3996 2.21739 37.9839 2.36522 38.4222 2.66087C38.8605 2.95652 39.1527 3.4 39.1527 3.84348C39.1527 4.28696 39.2988 4.43478 39.591 4.58261C39.8831 4.73043 40.0292 4.87826 40.3214 4.87826C40.6136 4.87826 40.9058 4.73043 41.0519 4.58261C41.3441 4.43478 41.3441 4.13913 41.3441 3.69565V3.84348C41.3441 3.25217 41.198 2.8087 40.9058 2.36522C40.6136 1.92174 40.3214 1.47826 39.8831 1.18261C39.4449 0.886957 39.0066 0.591304 38.4222 0.443478C38.13 0.147826 37.5457 0 36.8152 0H36.523C35.9387 0 35.2082 0.147826 34.7699 0.295652C34.1856 0.591304 33.7473 0.886956 33.309 1.33043C32.8707 1.77391 32.5785 2.21739 32.2864 2.8087C31.9942 3.4 31.8481 3.9913 31.8481 4.58261V12.2696C31.8481 12.8609 31.9942 13.6 32.2864 14.0435C32.5785 14.6348 32.8707 15.0783 33.309 15.5217C33.7473 15.9652 34.1856 16.2609 34.7699 16.5565C35.3543 16.8522 35.9387 16.8522 36.6691 16.8522H36.9613C37.5457 16.8522 38.2761 16.7043 38.7144 16.4087C39.2988 16.113 39.7371 15.8174 40.1753 15.3739C40.6136 14.9304 40.9058 14.487 41.198 13.8957C41.4902 13.3043 41.6362 12.713 41.6362 11.9739V8.72174C41.6362 8.42609 41.4902 8.13043 41.3441 7.83478C41.0519 7.53913 40.9058 7.53913 40.4675 7.53913H37.3996C36.9613 7.53913 36.6691 7.68696 36.523 7.83478C36.3769 8.13043 36.2308 8.27826 36.2308 8.57391C36.2308 8.86957 36.3769 9.16522 36.523 9.31304C36.6691 9.6087 36.9613 9.6087 37.3996 9.6087H39.2988V12.1217C39.2988 12.4174 39.2988 12.713 39.1527 13.0087C39.0066 13.3043 38.8605 13.6 38.5683 13.7478C38.4222 13.8957 38.13 14.1913 37.8379 14.3391C37.5457 14.487 37.2535 14.487 36.9613 14.487H36.6691C36.0848 14.487 35.5004 14.1913 35.0621 13.7478C34.6238 13.3043 34.3316 12.713 34.3316 12.1217V4.58261C34.1856 3.9913 34.4777 3.4 34.916 2.95652Z" fill="#272524"/>
<path d="M60.1899 7.83478C60.4821 7.3913 60.6282 6.94783 60.7743 6.50435C60.9204 6.06087 60.9204 5.46956 60.9204 5.02609V4.87826C60.9204 4.28696 60.7743 3.54783 60.4821 3.10435C60.1899 2.51304 59.8978 2.06956 59.4595 1.62609C59.0212 1.18261 58.5829 0.886956 57.9986 0.591304C57.4142 0.295651 56.8298 0.147825 56.2455 0.147825H52.301C52.0088 0.147825 51.7166 0.295651 51.5705 0.443477C51.2783 0.73913 51.2783 0.886956 51.2783 1.18261V15.8174C51.2783 16.2609 51.4244 16.5565 51.5705 16.7043C51.8627 16.8522 52.0088 17 52.4471 17C52.7392 17 53.0314 16.8522 53.1775 16.7043C53.4697 16.5565 53.4697 16.2609 53.4697 15.8174V9.75652H55.3689L58.4368 16.4087C58.5829 16.7043 58.729 16.8522 58.8751 16.8522C59.0212 17 59.1673 17 59.4595 17C59.8978 17 60.1899 16.8522 60.336 16.7043C60.4821 16.5565 60.6282 16.2609 60.6282 15.8174C60.6282 15.6696 60.6282 15.5217 60.4821 15.3739L57.7064 9.6087C58.4368 9.46087 58.8751 9.16522 59.3134 8.86957C59.6056 8.57391 59.8978 8.27826 60.1899 7.83478ZM58.729 5.02609C58.729 5.61739 58.5829 6.20869 58.1447 6.65217C57.7064 7.09565 57.122 7.3913 56.5376 7.3913H53.6158V2.51304H56.3915C56.9759 2.51304 57.5603 2.8087 57.9986 3.25217C58.4368 3.69565 58.729 4.28696 58.729 5.02609Z" fill="#272524"/>
<path d="M78.7436 1.33043C78.3054 0.886956 77.8671 0.591304 77.2827 0.295652C76.6983 0.147826 76.114 0 75.3835 0H75.2374C74.6531 0 73.9226 0.147826 73.3382 0.295652C72.7539 0.591304 72.3156 0.886956 71.8773 1.33043C71.439 1.77391 71.1468 2.21739 70.8547 2.8087C70.5625 3.4 70.4164 3.9913 70.4164 4.58261V12.2696C70.4164 12.8609 70.5625 13.6 70.8547 14.0435C71.1468 14.6348 71.439 15.0783 71.8773 15.5217C72.3156 15.9652 72.7539 16.2609 73.3382 16.5565C73.9226 16.8522 74.507 16.8522 75.0913 16.8522H75.3835C75.9679 16.8522 76.6983 16.7043 77.1366 16.5565C77.721 16.2609 78.1593 15.9652 78.5975 15.5217C79.0358 15.0783 79.328 14.6348 79.6202 14.0435C79.9124 13.4522 80.0585 12.8609 80.0585 12.2696V4.58261C80.0585 3.9913 79.9124 3.4 79.6202 2.8087C79.4741 2.21739 79.1819 1.77391 78.7436 1.33043ZM77.8671 12.4174C77.8671 13.1565 77.5749 13.6 77.1366 14.0435C76.6983 14.487 76.114 14.7826 75.5296 14.7826H75.2374C74.6531 14.7826 74.0687 14.487 73.6304 14.0435C73.1921 13.6 72.8999 13.0087 72.8999 12.4174V4.58261C72.8999 3.9913 73.1921 3.4 73.6304 2.95652C74.0687 2.51304 74.6531 2.21739 75.2374 2.21739H75.5296C76.114 2.21739 76.6983 2.36522 77.1366 2.8087C77.5749 3.25217 77.8671 3.84348 77.8671 4.43478V12.4174Z" fill="#272524"/>
<path d="M95.3981 15.9652L98.9043 1.47826C98.9043 1.33043 98.9043 1.33043 98.9043 1.18261C98.9043 0.886957 98.7582 0.591304 98.6121 0.443478C98.3199 0.147826 98.0278 0 97.7356 0C97.4434 0 97.2973 0 97.1512 0.147826C97.0051 0.295652 96.859 0.443478 96.7129 0.886957L94.0833 11.9739L91.4536 0.886957C91.3075 0.591304 91.1614 0.295652 91.0153 0.147826C90.8693 0 90.5771 0 90.431 0C90.1388 0 89.8466 0.147826 89.5544 0.295652C89.2622 0.591304 89.1161 0.886957 89.1161 1.18261C89.1161 1.33043 89.1161 1.47826 89.1161 1.47826L92.6224 16.113C92.7685 16.4087 92.9145 16.7043 93.0606 16.8522C93.3528 17 93.645 17.1478 93.9372 17.1478C94.2294 17.1478 94.5216 17 94.8137 16.8522C95.1059 16.5565 95.252 16.4087 95.3981 15.9652Z" fill="#272524"/>
<path d="M109.569 16.8522H116.874C117.312 16.8522 117.604 16.7043 117.75 16.5565C117.896 16.2609 118.042 16.113 118.042 15.8174C118.042 15.5217 117.896 15.2261 117.75 15.0783C117.604 14.7826 117.312 14.7826 116.874 14.7826H110.738V9.46087H114.974C115.413 9.46087 115.705 9.31304 115.851 9.16522C115.997 8.86956 116.143 8.72174 116.143 8.42609C116.143 8.13043 115.997 7.83478 115.851 7.68696C115.705 7.3913 115.413 7.3913 114.974 7.3913H110.738V2.51304H116.874C117.312 2.51304 117.604 2.36522 117.75 2.21739C117.896 1.92174 118.042 1.77391 118.042 1.47826C118.042 1.18261 117.896 0.886956 117.75 0.73913C117.604 0.443478 117.312 0.443478 116.874 0.443478H109.569C109.277 0.443478 108.985 0.591304 108.839 0.73913C108.546 1.03478 108.546 1.18261 108.546 1.47826V15.9652C108.546 16.2609 108.692 16.5565 108.839 16.7043C108.985 16.7043 109.277 16.8522 109.569 16.8522Z" fill="#272524"/>
<path d="M138.349 16.7043C138.641 16.8522 138.787 17 139.08 17C139.372 17 139.664 16.8522 139.81 16.7043C140.102 16.5565 140.102 16.2609 140.102 15.8174V1.18261C140.102 0.886957 139.956 0.591304 139.81 0.443478C139.81 0.147826 139.518 0 139.226 0H138.934C138.641 0 138.349 0 138.203 0.147826C138.057 0.295652 137.911 0.443478 137.765 0.73913L134.259 8.72174L130.752 0.73913C130.46 0.295652 130.168 0 129.584 0H129.291C128.999 0 128.707 0.147826 128.561 0.295652C128.269 0.591304 128.269 0.73913 128.269 1.03478V15.6696C128.269 16.113 128.415 16.4087 128.561 16.5565C128.853 16.7043 128.999 16.8522 129.291 16.8522C129.584 16.8522 129.876 16.7043 130.022 16.5565C130.314 16.4087 130.314 16.113 130.314 15.6696V5.32174L132.944 11.3826C133.09 11.6783 133.236 11.8261 133.382 11.9739C133.528 12.1217 133.82 12.1217 134.112 12.1217C134.405 12.1217 134.551 12.1217 134.843 11.9739C135.135 11.8261 135.281 11.6783 135.281 11.3826L137.911 5.32174V15.6696C138.057 16.2609 138.203 16.5565 138.349 16.7043Z" fill="#272524"/>
<path d="M156.465 0.147826C156.172 0 155.88 0 155.588 0C155.296 0 155.004 0.147826 154.858 0.295652C154.565 0.443478 154.419 0.73913 154.273 1.03478L149.744 15.6696C149.744 15.8174 149.744 15.9652 149.744 16.113C149.744 16.4087 149.89 16.7043 150.037 16.8522C150.183 17 150.475 17.1478 150.913 17.1478C151.205 17.1478 151.351 17.1478 151.644 17C151.936 16.8522 152.082 16.7043 152.082 16.4087L153.104 13.1565H158.364L159.386 16.4087C159.532 16.7043 159.679 16.8522 159.825 17C159.971 17.1478 160.263 17.1478 160.409 17.1478C160.701 17.1478 160.993 17 161.286 16.8522C161.432 16.7043 161.578 16.4087 161.578 16.113C161.578 15.9652 161.578 15.9652 161.578 15.8174L157.049 1.18261C156.903 0.591304 156.757 0.295652 156.465 0.147826ZM153.689 10.6435L155.588 4.28696L157.487 10.6435H153.689Z" fill="#272524"/>
<path d="M177.648 0.443477C177.064 0.147825 176.479 0.147825 175.895 0.147825H172.096C171.804 0.147825 171.512 0.295651 171.366 0.443477C171.074 0.73913 171.074 0.886956 171.074 1.18261V15.6696C171.074 15.9652 171.22 16.2609 171.366 16.4087C171.658 16.7043 171.804 16.7043 172.096 16.7043H175.895C176.479 16.7043 177.21 16.5565 177.648 16.4087C178.232 16.113 178.671 15.8174 179.109 15.5217C179.547 15.2261 179.839 14.6348 180.131 14.0435C180.424 13.4522 180.57 12.8609 180.57 12.1217V4.87826C180.57 4.13913 180.424 3.54783 180.131 2.95652C179.839 2.36522 179.547 1.92174 179.109 1.47826C178.817 1.03478 178.232 0.73913 177.648 0.443477ZM178.232 12.1217C178.232 12.4174 178.232 12.713 178.086 13.0087C177.94 13.3043 177.794 13.6 177.502 13.7478C177.356 13.8957 177.064 14.1913 176.771 14.3391C176.479 14.487 176.187 14.487 175.895 14.487H173.265V2.51304H175.895C176.187 2.51304 176.479 2.51304 176.771 2.66087C177.064 2.80869 177.356 2.95652 177.502 3.25217C177.648 3.4 177.94 3.69565 178.086 3.9913C178.232 4.28696 178.232 4.58261 178.232 4.87826V12.1217Z" fill="#272524"/>
<path d="M198.831 2.51304C199.27 2.51304 199.562 2.36522 199.708 2.21739C199.854 1.92174 200 1.77391 200 1.47826C200 1.18261 199.854 0.886956 199.708 0.73913C199.562 0.443478 199.27 0.443478 198.831 0.443478H191.527C191.235 0.443478 190.942 0.591304 190.796 0.73913C190.504 1.03478 190.504 1.18261 190.504 1.47826V15.9652C190.504 16.2609 190.65 16.5565 190.796 16.7043C191.088 17 191.235 17 191.527 17H198.831C199.27 17 199.562 16.8522 199.708 16.7043C199.854 16.4087 200 16.2609 200 15.9652C200 15.6696 199.854 15.3739 199.708 15.2261C199.562 14.9304 199.27 14.9304 198.831 14.9304H192.695V9.46087H196.932C197.37 9.46087 197.663 9.31304 197.809 9.16522C197.955 8.86957 198.101 8.72174 198.101 8.42609C198.101 8.13043 197.955 7.83478 197.809 7.68696C197.663 7.3913 197.37 7.3913 196.932 7.3913H192.695V2.51304H198.831Z" fill="#272524"/>
<path d="M11.5413 16.5565V16.4087C11.5413 16.5565 9.93426 12.4174 9.34989 11.8261C8.03506 10.4956 6.57414 10.6435 5.5515 10.6435H0.584368C0.292184 10.6435 0 10.7913 0 11.087V11.2348C0 11.2348 1.60701 15.3739 2.19138 15.8174C3.36012 17 4.38276 17 5.98977 17H11.103C11.3952 17 11.5413 16.8522 11.5413 16.5565Z" fill="#272524"/>
<path d="M20.0146 11.3826C20.0146 8.27826 16.8006 1.47826 16.3623 0.295652C16.3623 0.147826 16.2162 0 15.924 0C15.778 0 15.4858 0.147826 15.4858 0.295652C13.2944 5.46957 11.6874 9.31304 11.6874 9.31304C11.5413 9.75652 11.3952 10.2 11.5413 10.6435C11.6874 11.087 12.5639 12.8609 13.1483 14.3391C14.0249 16.4087 14.1709 17 16.0701 17C18.4076 17 20.0146 14.9304 20.0146 11.3826Z" fill="#272524"/>
</svg>

<svg width="200" height="17" fill="none" xmlns="http://www.w3.org/2000/svg"><path d="M34.916 2.957c.438-.444 1.023-.74 1.607-.74h.292c.585 0 1.169.148 1.607.444.439.296.73.739.73 1.182 0 .444.147.592.439.74.292.147.438.295.73.295.293 0 .585-.148.73-.295.293-.148.293-.444.293-.887v.147c0-.59-.146-1.034-.438-1.478-.292-.443-.585-.887-1.023-1.182-.438-.296-.876-.592-1.46-.74C38.13.148 37.545 0 36.814 0h-.292c-.584 0-1.315.148-1.753.296-.584.295-1.023.591-1.461 1.034-.438.444-.73.887-1.023 1.479-.292.591-.438 1.182-.438 1.774v7.687c0 .59.146 1.33.438 1.774.292.59.585 1.034 1.023 1.478.438.443.877.739 1.46 1.034.585.296 1.17.296 1.9.296h.292c.585 0 1.315-.148 1.753-.443.585-.296 1.023-.592 1.461-1.035.439-.444.73-.887 1.023-1.478a4.132 4.132 0 0 0 .438-1.922V8.722c0-.296-.146-.592-.292-.887-.292-.296-.438-.296-.877-.296H37.4c-.439 0-.73.148-.877.296-.146.295-.292.443-.292.739s.146.591.292.739c.146.296.438.296.877.296h1.899v2.513c0 .295 0 .591-.146.887-.146.295-.292.591-.585.739-.146.148-.438.443-.73.591-.292.148-.584.148-.877.148h-.292c-.584 0-1.169-.296-1.607-.74-.438-.443-.73-1.034-.73-1.625v-7.54c-.146-.59.146-1.182.584-1.625ZM60.19 7.835c.292-.444.438-.887.584-1.33.146-.444.146-1.035.146-1.479v-.148c0-.591-.146-1.33-.438-1.774-.292-.591-.584-1.034-1.023-1.478-.438-.443-.876-.739-1.46-1.035-.585-.295-1.17-.443-1.754-.443h-3.944a1.11 1.11 0 0 0-.73.295c-.293.296-.293.444-.293.74v14.634c0 .444.146.74.293.887.292.148.438.296.876.296.292 0 .584-.148.73-.296.293-.148.293-.443.293-.887v-6.06h1.899l3.068 6.652c.146.295.292.443.438.443.146.148.292.148.584.148.439 0 .73-.148.877-.296.146-.148.292-.443.292-.887 0-.147 0-.295-.146-.443l-2.776-5.765c.73-.148 1.17-.444 1.607-.74.293-.295.585-.59.877-1.034Zm-1.461-2.809c0 .591-.146 1.183-.584 1.626-.439.444-1.023.74-1.607.74h-2.922V2.512h2.776c.584 0 1.168.296 1.607.74.438.443.73 1.034.73 1.773ZM78.744 1.33c-.439-.443-.877-.739-1.461-1.034C76.698.148 76.114 0 75.383 0h-.146c-.584 0-1.314.148-1.899.296-.584.295-1.022.591-1.46 1.034-.439.444-.731.887-1.023 1.479-.293.591-.439 1.182-.439 1.774v7.687c0 .59.147 1.33.439 1.774.292.59.584 1.034 1.022 1.478.439.443.877.739 1.461 1.034.585.296 1.169.296 1.753.296h.293c.584 0 1.314-.148 1.753-.296.584-.295 1.022-.59 1.46-1.034.439-.444.731-.887 1.023-1.479.292-.59.438-1.182.438-1.773V4.583c0-.592-.146-1.183-.438-1.774-.146-.592-.438-1.035-.876-1.479Zm-.877 11.087c0 .74-.292 1.183-.73 1.627-.439.443-1.023.739-1.607.739h-.293c-.584 0-1.168-.296-1.607-.74-.438-.443-.73-1.034-.73-1.626V4.583c0-.592.292-1.183.73-1.626.439-.444 1.023-.74 1.607-.74h.293c.584 0 1.168.148 1.607.592.438.443.73 1.034.73 1.626v7.982ZM95.398 15.965l3.506-14.487v-.295c0-.296-.146-.592-.292-.74C98.32.148 98.028 0 97.736 0c-.293 0-.439 0-.585.148-.146.148-.292.295-.438.739l-2.63 11.087L91.453.887c-.145-.296-.292-.591-.438-.74C90.87 0 90.577 0 90.431 0c-.292 0-.584.148-.877.296-.292.295-.438.591-.438.887v.295l3.506 14.635c.147.296.293.591.439.74.292.147.584.295.876.295.292 0 .585-.148.877-.296.292-.296.438-.443.584-.887ZM109.569 16.852h7.305c.438 0 .73-.148.876-.296.146-.295.292-.443.292-.739 0-.295-.146-.59-.292-.739-.146-.295-.438-.295-.876-.295h-6.136V9.46h4.236c.439 0 .731-.148.877-.296.146-.295.292-.443.292-.739s-.146-.591-.292-.739c-.146-.296-.438-.296-.877-.296h-4.236V2.513h6.136c.438 0 .73-.148.876-.296.146-.295.292-.443.292-.739 0-.295-.146-.591-.292-.739-.146-.296-.438-.296-.876-.296h-7.305c-.292 0-.584.148-.73.296-.293.296-.293.444-.293.74v14.486c0 .296.146.591.293.74.146 0 .438.147.73.147ZM138.349 16.704c.292.148.438.296.731.296.292 0 .584-.148.73-.296.292-.148.292-.443.292-.887V1.183c0-.296-.146-.592-.292-.74 0-.295-.292-.443-.584-.443h-.292c-.293 0-.585 0-.731.148a2.038 2.038 0 0 0-.438.591l-3.506 7.983-3.507-7.983C130.46.296 130.168 0 129.584 0h-.293c-.292 0-.584.148-.73.296-.292.295-.292.443-.292.739V15.67c0 .443.146.739.292.886.292.148.438.296.73.296.293 0 .585-.148.731-.296.292-.147.292-.443.292-.886V5.322l2.63 6.06c.146.296.292.444.438.592.146.148.438.148.73.148.293 0 .439 0 .731-.148s.438-.296.438-.591l2.63-6.061V15.67c.146.59.292.886.438 1.034ZM156.465.148C156.172 0 155.88 0 155.588 0c-.292 0-.584.148-.73.296-.293.147-.439.443-.585.739l-4.529 14.635v.443c0 .296.146.591.293.74.146.147.438.295.876.295.292 0 .438 0 .731-.148.292-.148.438-.296.438-.591l1.022-3.252h5.26l1.022 3.252c.146.295.293.443.439.591.146.148.438.148.584.148.292 0 .584-.148.877-.296.146-.148.292-.443.292-.739v-.296l-4.529-14.634c-.146-.592-.292-.887-.584-1.035Zm-2.776 10.495 1.899-6.356 1.899 6.356h-3.798ZM177.648.443c-.584-.295-1.169-.295-1.753-.295h-3.799c-.292 0-.584.148-.73.295-.292.296-.292.444-.292.74V15.67c0 .295.146.59.292.739.292.295.438.295.73.295h3.799c.584 0 1.315-.148 1.753-.295.584-.296 1.023-.592 1.461-.887.438-.296.73-.887 1.022-1.479a4.122 4.122 0 0 0 .439-1.921V4.878c0-.739-.146-1.33-.439-1.921-.292-.592-.584-1.035-1.022-1.479-.292-.443-.877-.739-1.461-1.035Zm.584 11.679c0 .295 0 .591-.146.887-.146.295-.292.591-.584.739-.146.148-.438.443-.731.591-.292.148-.584.148-.876.148h-2.63V2.513h2.63c.292 0 .584 0 .876.148.293.148.585.296.731.591.146.148.438.444.584.74.146.295.146.59.146.886v7.244ZM198.831 2.513c.439 0 .731-.148.877-.296.146-.295.292-.443.292-.739 0-.295-.146-.591-.292-.739-.146-.296-.438-.296-.877-.296h-7.304a1.11 1.11 0 0 0-.731.296c-.292.296-.292.444-.292.74v14.486c0 .296.146.591.292.74.292.295.439.295.731.295h7.304c.439 0 .731-.148.877-.296.146-.295.292-.443.292-.739 0-.295-.146-.591-.292-.739-.146-.296-.438-.296-.877-.296h-6.136V9.46h4.237c.438 0 .731-.147.877-.295.146-.295.292-.443.292-.739s-.146-.591-.292-.739c-.146-.296-.439-.296-.877-.296h-4.237V2.513h6.136ZM11.541 16.556v-.147c0 .148-1.607-3.992-2.191-4.583-1.315-1.33-2.776-1.183-3.798-1.183H.583c-.292 0-.584.148-.584.444v.148s1.607 4.139 2.191 4.582C3.361 17 4.383 17 5.99 17h5.113c.292 0 .438-.148.438-.444ZM20.015 11.383c0-3.105-3.214-9.905-3.653-11.087 0-.148-.146-.296-.438-.296-.146 0-.438.148-.438.296-2.192 5.174-3.799 9.017-3.799 9.017-.146.444-.292.887-.146 1.33.146.444 1.023 2.218 1.607 3.696C14.025 16.41 14.171 17 16.07 17c2.338 0 3.945-2.07 3.945-5.617Z" fill="#272524"/></svg>
